svg/fluentui-system-icons/ic_fluent_database_stack_16_regular.svg

<svg xmlns="http://www.w3.org/2000/svg" width="16" height="16"><path d="M8 1C5.149 1 3 2.075 3 3.5v9C3 13.925 5.149 15 8 15s5-1.075 5-2.5v-9C13 2.075 10.851 1 8 1Zm0 1c2.441 0 4 .888 4 1.5S10.441 5 8 5s-4-.888-4-1.5S5.558 2 8 2Zm0 12c-2.442 0-4-.889-4-1.5V9.537c.897.593 2.328.963 4 .963 1.672 0 3.103-.37 4-.963V12.5c0 .611-1.559 1.5-4 1.5Zm0-4.5c-2.442 0-4-.888-4-1.5V5.021A7.409 7.409 0 0 0 8 6a7.409 7.409 0 0 0 4-.979V8c0 .612-1.558 1.5-4 1.5Z"/></svg>

<svg width="16" height="16" viewBox="0 0 16 16" fill="none" xmlns="http://www.w3.org/2000/svg">
<path d="M8 1C5.149 1 3 2.075 3 3.5V12.5C3 13.925 5.149 15 8 15C10.851 15 13 13.925 13 12.5V3.5C13 2.075 10.851 1 8 1ZM8 2C10.441 2 12 2.888 12 3.5C12 4.112 10.441 5 8 5C5.559 5 4 4.112 4 3.5C4 2.888 5.558 2 8 2ZM8 14C5.558 14 4 13.111 4 12.5V9.537C4.897 10.13 6.328 10.5 8 10.5C9.672 10.5 11.103 10.13 12 9.537V12.5C12 13.111 10.441 14 8 14ZM8 9.5C5.558 9.5 4 8.612 4 8V5.021C5.214 5.719 6.601 6.058 8 6C9.399 6.058 10.786 5.719 12 5.021V8C12 8.612 10.442 9.5 8 9.5Z" fill="#212121"/>
</svg>
